X:1
T:Title
%%score 1 2 3 4
L:1/8
M:4/4
K:F
V:1 treble nm="Part_1"
V:2 treble nm="Part_2"
V:3 bass nm="Part_3"
V:4 bass nm="Part_4"
V:1
 d6 cc | d6 G2 | A8 | z4 z2 f2 | f2 f2 f2 f2 | _e2 e2 d2 dd | c2 c2 B2 B2 | BABc A4 | G4 z2 d2 | %9
w: O quam tu|pul- chra|es|quam|pul- chra es a-|mi- ca me- a co-|lum- ba me- a|spe- ti- o- sa me-|a quam|
 B6 c2 | A8 | d8- | d8 | d8 | d2 AA B<AB<c | A8 | f6 ed | cc c4 BA | G3 A AAcG | A8 | z4 d2 A2 | %21
w: pul- chra|es.|Fa-|||* vus dis- til- * * *|lans|fa- vus di-|stil- lans la- bi- a|tu- a spon- sa mel et|lac|mel et|
 =B3 B c2 A/G/A/F/ | G4 G4 | z2 d2 A4 | A4 z2 d2 | A2 AA AA A2 | A2 B2 c4 | c8 | G2 A2 B2 c2 | A8 | %30
w: lac sub lin- gua * * *|tu- a|et o-|dor et|o- dor ve- sti- men- to-|rum tu- o-|rum|si- cut o- dor|thu-|
 G4 z2 d2 | B6 c2 | A8 | z2 _ee e2 ee | _e4 e4 | z8 | z4 z2 dc | B2 B2 z4 | B<AB<c A4 | %39
w: ris quam|pul- chra|es|vul- ne- ra- sti cor|me- um||so- ror|me- a|spon- * * * sa|
 z2 dd d2 dd | d2 dd dcde | f2 ed c4 | c4 c2 d2 | B2 c2 A2 B2 | G4 G2 G2- | G2 ^F2 G4 | z8 | %47
w: vul- ne- ra- sti cor|me- um in u- no o- cu-|lo- rum tu- o-|rum et in|u- no cri- ne|col- li tu-|* * i||
 z2 d2 B2 c2 | A8 || (3:2:2B8 c4 | (3d6 d2 d4 | (3d4 c4 B4 | (3A4 A4 d4 | (3:2:2c8 B4 | %54
w: quam pul- chra|es|* ge|pro- pe- ra|a- mi- ca|me- a co-|lum- ba|
 (3A4 A4 d4 | (3:2:2c8 B4 | (3A4 A4 d4 | (3c2 c2 d8 | (3:2:2B4 A8 ||[M:4/4] G8 | f8- | f4 _edcB | %62
w: me- a for-|mo- sa|me- a im-|ma- cu- *|ta me-|a|O|* quam tu pul- chra|
 c8 | g8- | g4 f_edc | d4 dcBA | B4 z ABc | A2 A2 z4 | z4 z2 A2 | cc c4 B2 | A8 | G4 z2 A2 | %72
w: es|O|* quam tu pul- chra|es quam tu pul- chra|es a- mi- ca|me- a|im-|ma- cu- la- ta|me-|a im-|
 cc c4 B2 | A8 | G8 |] %75
w: ma- cu- la- ta|me-|a|
V:2
 B4 A2 A2 | A4 G4 | ^F8 | z2 d2 d2 d2 | d2 d2 c2 c2 | B2 BB A2 A2 | G2 G2 GFGA | ^F2 G4 F2 | %8
w: O quam tu|pul- chra|es|quam pul- chra|es a- mi- ca|me- a co- lum- ba|me- a spe- ti- o- sa|me- * *|
 G4 z2 B2 | G6 A2 | ^F8 | B8- | B8 | B8 | B2 ^FF G<FG<A | ^F8 | d6 cB | AA A4 GF | E2 F2 F2 F2 | %19
w: a quam|pul- chra|es.|Fa|||* vus di- stil- * * *|lans|fa- vus di-|stil- lans la- bi- a|tu- a spon- *|
 F4 A2 E2 | ^F4 B2 F2 | G3 G G2 F2 | E4 E4 | z2 B2 ^F4 | ^F4 z2 B2 | ^F2 FF FF F2 | ^F2 G2 A4 | %27
w: sa mel et|lac mel et|lac sub lin- gua|tu- a|et o-|dor et|o- dor ve- sti- men- to-|rum tu- o-|
 A8 | E2 F2 G2 A2 | ^F2 G4 F2 | G4 z2 B2 | G6 A2 | ^F8 | z8 | z8 | z2 BB B2 BB | B4 B4 | %37
w: rum|si- cut o- dor|thu- * *|ris quam|pul- chra|es|||vul- ne- ra- sti cor|me- um|
 z2 BA G2 G2 | G<^FG<A F4 | z2 BB B2 BB | B2 BB BABc | d2 cB A4 | A4 A2 F2 | G2 _E2 F2 D2 | %44
w: so- ror me- a|spon- * * * sa|vul- ne- ra- sti cor|me- um in u- no o- cu-|lo- rum tu- o-|rum et in|u- no cri- ne|
 EDEF G2 A2 | A4 G4 | z2 d2 B2 c2 | A2 z B G2 A2 | ^F8 || (3:2:2G8 A4 | (3B6 B2 B4 | (3B4 A4 G4 | %52
w: col- * * * * li|tu- i|quam pul- chra|es quam pul- chra|es|* ge|pro- pe- ra|a- mi- ca|
 (3^F4 F4 B4 | (3:2:2A8 G4 | (3^F4 F4 B4 | (3:2:2A8 G4 | (3^F4 F4 B4 | (3A6 A2 A4 | (3G4 G4 ^F4 || %59
w: me- a co-|lum- ba|me- a for-|mo- sa|me- a im-|ma- cu- la-|ta me- *|
[M:4/4] G8 | d8- | d4 cBAG | A8 | _e8- | e4 dcBA | B4 BAGF | G8 | z ABc A2 A2 | z4 z2 ^F2 | %69
w: a|O|* quam tu pul- chra|es|O|* quam tu pul- chra|es quam tu pul- chra|es|co- lum- ba me- a|im-|
 GG G2 G2 G2- | G2 ^FE F4 | G4 z2 ^F2 | GG G2 G2 G2- | G2 ^FE F4 | G8 |] %75
w: ma- cu- la- ta me-||a im-|ma- cu- la- ta me-|||
V:3
 G,4 F,2 F,2 | F,4 _E,4 | D,8 | z2 B,2 B,2 B,2 | B,2 B,2 A,2 A,2 | G,2 G,G, F,2 F,2 | %6
w: O quam tu|pul- chra|es|quam pul- chra|es a- mi- ca|me- a co- lum- ba|
 _E,2 E,2 E,D,E,F, | D,8 | G,,2 G,,2 G,,4- | G,,4 G,,4 | D,8 | B,2 A,2 G,2 F,E, | %12
w: me- a spe- ti- o- sa|me-|a quam pul-|* chra|es|Fa- * * * *|
 D,2 C,2 B,,2 A,,2 | G,,2 F,,E,, D,,4 | D,,2 D,,2 G,,4 | D,8 | B,,2 C,2 D,2 E,2 | %17
w: ||vus di- stil-|lans|fa- * vus di-|
 F,2 G,,2 A,,2 B,,B,, | C,2 B,,2 C,4 | F,,4 F,2 ^C,2 | D,8 | z2 G,2 E,2 F,2 | C,4 C,4 | %23
w: stil- lans la- bi- a|tu- a spon-|sa mel et|lac|sub lin- gua|tu- a|
 z2 G,,2 D,4 | D,4 z2 G,,2 | D,2 D,D, D,D, D,2 | D,2 G,2 F,4 | F,4 A,,2 B,,2 | %28
w: et o-|dor et|o- dor ve- sti- men- to|rum tu- o-|rum si- cut|
 C,2 B,,A,, G,,2 G,,2 | D,2 C,2 D,4 | G,,2 G,,2 G,,4- | G,,4 G,,4 | D,8 | z8 | z8 | z8 | z8 | z8 | %38
w: o- * * * dor|thu- * *|ris quam pul-|* chra|es||||||
 z8 | z8 | z8 | z8 | z4 F,2 F,2 | _E,2 E,2 D,2 D,2 | C,B,,C,D, _E,2 C,2 | D,4 G,,2 G,,2 | %46
w: ||||et in|u- no cri- ne|col- * * * * li|tu- i quam|
 G,,4 G,,4 | D,8- | D,8 || (3:2:2G,,8 F,,4 | (3B,,6 B,,2 B,,4 | (3B,,4 F,4 G,4 | (3D,4 D,4 B,,4 | %53
w: pul- chra|es||* ge|pro- pe- ra|a- mi- ca|me- a co-|
 (3:2:2F,8 G,4 | (3D,4 D,4 B,,4 | (3:2:2F,8 G,4 | (3D,4 D,4 B,,4 | (3F,6 F,2 F,4 | (3:2:2G,4 D,8 || %59
w: lum- ba|me- a for-|mo- sa|me- a im-|ma- cu- la-|ta me-|
[M:4/4] G,,8 | B,,4 B,,2 B,,2 | B,,4 B,,4 | F,8 | C,4 C,2 C,2 | C,4 C,4 | G,8 | z8 | z4 z D,_E,F, | %68
w: a|O quam tu|pul- chra|es|O quam tu|pul- chra|es||for- mo- sa|
 D,2 D,2 z2 D,2 | _E,E, E,4 C,2 | D,8 | G,,4 z2 D,2 | _E,E, E,4 C,2 | D,8 | G,,8 |] %75
w: me- a im-|ma- cu- la- ta|me-|a im-|ma- cu- la- ta|me-||
V:4
 G,4 F,2 F,2 | F,4 _E,4 | D,8 | D,2 B,2 B,2 B,2 | B,4 A,4 | G,4 F,4 | _E,4 E,D,E,F, | D,8 | %8
w: ||||||||
 G,,4 G,,4 | G,,4 G,,4 | D,8 | B,2 A,2 G,2 F,E, | D,2 C,2 B,,2 A,,2 | G,,2 F,,E,, D,,4 | %14
w: ||||||
 D,,2 D,,2 G,,4 | D,,8 | B,,2 C,2 D,2 E,2 | F,2 G,,2 A,,2 B,,2 | C,2 B,,2 C,4 | F,,4 F,2 ^C,2 | %20
w: ||||||
 D,8 | G,4 E,2 F,2 | C,8 | z2 G,,2 D,4 | D,4 z2 G,,2 | D,8 | D,2 G,2 F,4 | F,4 A,,2 B,,2 | %28
w: |* * Grandi|||||||
 C,2 B,,A,, G,,4 | D,2 C,2 D,4 | G,,4 G,,4- | G,,4 G,,4 | D,8 | C,8 | C,8 | G,,8- | G,,8 | G,,8- | %38
w: ||||||||||
 G,,4 D,4 | B,,8- | B,,8 | B,,4 F,4 | F,,4 F,2 F,2 | _E,4 D,4 | C,3 D, _E,2 C,2 | D,4 G,,4- | %46
w: ||||||||
 G,,8 | D,8- | D,8 || (3:2:2G,,8 F,,4 | (3B,,6 B,,2 B,,4 | (3B,,4 F,,4 G,,4 | (3:2:2D,8 B,,4 | %53
w: |Grandi||||||
 (3:2:2F,,8 G,,4 | (3:2:2D,8 B,,4 | (3:2:2F,,8 G,,4 | (3:2:2D,8 B,,4 | (3:2:2F,,8 F,,4 | %58
w: |||||
 (3:2:2G,,4 D,8 ||[M:4/4] G,,8 | B,,4 B,,2 B,,2 | B,,4 B,,4 | F,8 | C,4 C,2 C,2 | C,4 C,4 | G,,8- | %66
w: ||||||||
 G,,8 | D,8- | D,6 D,2 | _E,E, E,4 C,2 | D,8 | G,,4 z2 D,2 | _E,E, E,4 C,2 | D,8 | G,,8 |] %75
w: ||||||Grandi jIGIO jNr. jBeispiel|||

